pieces/chess7/kb.svg

<svg width="68" height="68" viewBox="0 0 68 68" fill="none" xmlns="http://www.w3.org/2000/svg">
<path d="M50.346 52.528C50.6873 56.1973 51.114 60.2507 51.626 64.688H16.042C16.298 62.4693 16.5327 60.3147 16.746 58.224C16.9593 56.1333 17.194 54.2347 17.45 52.528C16.426 52.3147 15.402 51.9947 14.378 51.568C13.354 51.0987 12.2233 50.3947 10.986 49.456C9.27933 48.048 7.978 46.6613 7.082 45.296C6.186 43.9307 5.482 42.288 4.97 40.368C4.15933 37.2107 3.754 34.544 3.754 32.368C3.79666 31.472 3.90333 30.2987 4.074 28.848C4.28733 27.3973 4.75666 25.7547 5.482 23.92C6.07933 22 7.23133 20.2507 8.938 18.672C10.6447 17.0933 12.0527 16.0693 13.162 15.6C14.1433 15.088 16.1273 14.6827 19.114 14.384C22.1007 14.0853 24.682 14.2347 26.858 14.832C27.882 15.2587 28.5433 15.664 28.842 16.048C29.354 15.152 29.9513 14.2133 30.634 13.232C31.3593 12.208 32.042 11.248 32.682 10.352V9.264H29.738V6.192H32.682V3.312H35.626V6.192H38.378V9.264H35.626V10.352C36.2233 11.248 36.842 12.1867 37.482 13.168C38.1647 14.1067 38.762 15.024 39.274 15.92C39.5727 15.7067 39.8713 15.5147 40.17 15.344C40.5113 15.1733 40.8313 15.0027 41.13 14.832C43.3487 14.2347 45.93 14.0853 48.874 14.384C51.8607 14.6827 53.9087 15.088 55.018 15.6C55.9993 16.0693 57.3433 17.0933 59.05 18.672C60.7567 20.2507 61.9727 22 62.698 23.92C63.2953 25.7547 63.7007 27.3973 63.914 28.848C64.1273 30.2987 64.234 31.472 64.234 32.368C64.3193 34.5013 63.914 37.168 63.018 40.368C62.506 42.288 61.802 43.9307 60.906 45.296C60.0527 46.6613 58.7513 48.048 57.002 49.456C55.722 50.48 54.5487 51.2267 53.482 51.696C52.4153 52.1227 51.37 52.4 50.346 52.528Z" fill="black"/>
<path fill-rule="evenodd" clip-rule="evenodd" d="M19.277 57.286V55.66L20.32 55.37C20.893 55.21 21.383 55.1 21.409 55.126C21.546 55.263 21.953 57.891 21.852 57.986C21.786 58.05 21.282 58.246 20.732 58.422C20.182 58.599 19.629 58.782 19.504 58.828C19.334 58.891 19.277 58.51 19.277 57.286ZM24.295 57.034C24.251 56.895 24.165 56.28 24.103 55.668C24.014 54.782 24.046 54.532 24.258 54.451C24.404 54.395 25.43 54.291 26.538 54.221L28.55 54.094V55.473C28.55 56.231 28.487 56.89 28.41 56.938C28.332 56.986 27.393 57.083 26.322 57.155C24.739 57.261 24.36 57.239 24.295 57.034ZM32.482 57.041L31.039 55.573L32.564 54.04C33.403 53.197 34.131 52.528 34.184 52.554C34.234 52.579 34.927 53.277 35.722 54.105L37.168 55.61L35.727 57.06C34.934 57.857 34.204 58.51 34.105 58.51C34.005 58.51 33.275 57.849 32.482 57.041ZM40.595 57.103L39.822 57.033V54.1L41.141 54.224C41.8159 54.2867 42.4894 54.3641 43.161 54.456C43.851 54.561 43.86 54.573 43.753 55.218C43.693 55.578 43.643 56.181 43.643 56.556L43.641 57.237L42.504 57.206C41.8669 57.1878 41.2304 57.1528 40.595 57.103ZM46.95 58.282C45.997 58.011 45.651 57.835 45.72 57.656C45.773 57.518 45.913 56.876 46.033 56.228C46.203 55.301 46.311 55.068 46.536 55.132C48.334 55.643 48.368 55.661 48.368 56.057C48.368 56.277 48.42 56.959 48.485 57.573C48.55 58.198 48.53 58.683 48.439 58.675C48.35 58.666 47.679 58.489 46.95 58.282ZM46.004 48.754C43.087 47.107 41.566 46.694 37.414 46.415L35.459 46.284V35.094L36.283 31.574C38.577 21.774 39.522 19.291 41.355 18.247C42.258 17.732 42.607 17.648 44.764 17.423C46.636 17.228 49.924 17.437 52.09 17.888C53.706 18.225 54.837 18.974 57.007 21.143C58.851 22.987 59.496 24.108 60.26 26.802C61.482 31.112 61.301 35.745 59.727 40.454C59.091 42.357 57.944 44.142 56.335 45.734C54.167 47.878 52.579 48.852 50.505 49.311C48.071 49.849 47.908 49.829 46.004 48.754ZM50.815 45.873C52.919 44.954 53.781 44.293 55.045 42.625C56.943 40.119 57.833 37.685 58.193 34.012C58.429 31.602 58.245 30.006 57.45 27.572C56.505 24.682 55.38 23.012 53.726 22.042C52.018 21.041 48.002 20.462 45.486 20.855C43.792 21.119 43.185 21.437 42.756 22.285C41.869 24.033 39.56 32.511 39.002 36.065C38.807 37.307 38.734 38.806 38.77 40.855L38.822 43.835L43.732 45.16C46.432 45.889 48.804 46.49 49.004 46.495C49.204 46.5 50.019 46.22 50.815 45.873ZM18.186 49.396C17.236 49.197 16.05 48.846 15.55 48.616C13.609 47.723 10.547 44.926 9.386 42.986C8.246 41.081 7.206 37.106 6.979 33.782C6.79 31.007 7.684 26.04 8.755 23.905C9.634 22.155 11.99 19.735 13.939 18.58C15.952 17.388 22.709 16.943 25.873 17.796C26.263 17.901 26.947 18.322 27.393 18.733C28.91 20.132 29.729 22.433 31.632 30.653L32.55 34.617V46.311L31.868 46.415C27.766 47.045 23.12 48.305 21.056 49.348C20.584 49.587 20.134 49.776 20.056 49.769C19.977 49.762 19.136 49.594 18.186 49.396ZM24.433 44.792C27.119 44.048 29.363 43.394 29.418 43.338C29.63 43.126 29.676 38.509 29.48 37.053C29.064 33.956 26.582 24.375 25.615 22.126C25.309 21.416 25.078 21.171 24.394 20.835C23.632 20.46 23.292 20.419 20.914 20.419C18.008 20.419 16.921 20.613 15.146 21.447C12.796 22.55 11.394 24.573 10.443 28.238C10.009 29.911 9.98 30.256 10.076 32.6C10.142 34.193 10.319 35.714 10.549 36.665C11.232 39.485 13.682 43.467 15.379 44.516C16.355 45.119 19.119 46.306 19.347 46.221C19.459 46.18 21.747 45.537 24.433 44.792ZM33.929 27.418C33.587 25.828 32.647 22.805 31.979 21.146C31.449 19.828 31.271 19.151 31.331 18.686C31.421 17.992 32.55 15.857 33.573 14.449L34.211 13.571L34.801 14.541L35.949 16.418C36.995 18.124 37.025 18.456 36.3 20.275C35.711 21.753 34.956 24.312 34.325 26.964L34.065 28.054L33.929 27.418Z" fill="white"/>
</svg>

<svg height="68" width="68" xmlns="http://www.w3.org/2000/svg"><path d="m23.914 54.384.32 2.88q1.152 0 2.176-.064 1.024-.064 2.112-.192v-2.944q-2.048 0-4.608.32zm19.968 0q-.96 0-2.112-.128-1.088-.192-1.984-.192v3.072q.96 0 1.856.064.896.064 1.984.064zm-23.68-4.608q.704-.384 1.728-.768 1.024-.448 2.752-.96 2.304-.768 4.352-1.152 2.112-.384 3.648-.512v-11.392q-1.28-5.952-2.688-11.2-1.408-5.248-3.904-6.016-2.88-.768-6.72-.448-3.776.32-4.992.896-1.344.704-3.392 2.624-1.984 1.856-2.752 4.16-.832 2.432-1.088 4.352-.192 1.92-.32 3.136 0 2.496 1.088 7.104.64 2.304 1.728 3.968 1.152 1.664 3.328 3.392 1.92 1.664 3.712 2.176 1.792.448 3.52.64zm13.888-21.44q.576-2.688 1.216-5.12.704-2.496 1.664-4.416 0-.64-.576-1.792-.512-.96-1.152-1.792-.576-.832-1.024-1.792-1.6 2.176-2.304 3.584-.576 1.024-.704 1.472-.064.448-.064.832 1.728 3.52 2.944 9.024zm16.256 24.192q.512 5.504 1.28 12.16h-35.584q.384-3.328.704-6.464.32-3.136.704-5.696-1.536-.32-3.072-.96-1.536-.704-3.392-2.112-2.56-2.112-3.904-4.16-1.344-2.048-2.112-4.928-1.216-4.736-1.216-8 .064-1.344.32-3.52.32-2.176 1.408-4.928.896-2.88 3.456-5.248 2.56-2.368 4.224-3.072 1.472-.768 5.952-1.216 4.48-.448 7.744.448 1.536.64 1.984 1.216.768-1.344 1.792-2.816 1.088-1.536 2.048-2.88v-1.088h-2.944v-3.072h2.944v-2.88h2.944v2.88h2.752v3.072h-2.752v1.088q.896 1.344 1.856 2.816 1.024 1.408 1.792 2.752.448-.32.896-.576.512-.256.96-.512 3.328-.896 7.744-.448 4.48.448 6.144 1.216 1.472.704 4.032 3.072 2.56 2.368 3.648 5.248.896 2.752 1.216 4.928.32 2.176.32 3.52.128 3.2-1.216 8-.768 2.88-2.112 4.928-1.28 2.048-3.904 4.16-1.92 1.536-3.52 2.24-1.6.64-3.136.832zm-16.128-.32-1.728 1.728q-1.28 1.344-1.472 1.536.192.384 1.472 1.728 1.344 1.28 1.728 1.472.064-.192 1.344-1.472l1.728-1.728q-.384-.192-1.728-1.536-1.28-1.344-1.344-1.728zm1.216-5.824q1.6 0 4.16.256t3.84.832l2.048 1.024q1.152.576 2.304 1.28 1.728-.128 3.456-.576 1.792-.512 3.904-2.24 3.904-3.264 4.928-7.36 1.216-4.544 1.088-7.104 0-1.216-.256-3.136-.256-1.92-1.152-4.352-.832-2.304-2.88-4.16-2.048-1.92-3.264-2.624-1.344-.576-4.992-.896-3.648-.32-6.528.448-2.56.768-3.968 6.016-1.344 5.248-2.688 11.2zm-16.32-.192-2.176-.896q-2.112-.896-3.008-2.304-1.344-1.28-2.624-4.16-1.088-2.432-1.216-6.336-.256-2.048.512-4.736.768-2.688 1.6-3.84 1.92-2.688 5.888-3.392 2.048-.192 4.16-.064 2.176.064 2.88.832.384.448 1.024 2.496t1.28 4.48q.704 2.432 1.216 4.736.512 2.24.64 3.072.32 1.728.256 3.712-.064 1.92-.064 3.52zm30.016.32-10.304-2.752q0-1.6-.128-3.52-.064-1.984.32-3.904.064-.832.576-3.072t1.152-4.608q.64-2.432 1.28-4.416.704-2.048 1.088-2.496.704-.768 2.88-.896 2.24-.192 4.224.128 4.096.512 5.824 3.392.768 1.152 1.536 3.84.832 2.688.64 4.8-.192 3.84-1.216 6.144-.512 1.408-1.344 2.56-.832 1.152-1.28 1.728-.96 1.28-3.136 2.176zm-27.072 11.52-.576-3.072-2.176.64-.192 3.392zm23.552-.128 3.072.896-.32-3.2-2.112-.64z"/><path d="m19.277 57.286v-1.626l1.043-.29c.573-.16 1.063-.27 1.089-.244.137.137.544 2.765.443 2.86-.066.064-.57.26-1.12.436-.55.177-1.103.36-1.228.406-.17.063-.227-.318-.227-1.542zm5.018-.252c-.044-.139-.13-.754-.192-1.366-.089-.886-.057-1.136.155-1.217.146-.056 1.172-.16 2.28-.23l2.012-.127v1.379c0 .758-.063 1.417-.14 1.465-.078.048-1.017.145-2.088.217-1.583.106-1.962.084-2.027-.121zm8.187.007-1.443-1.468 1.525-1.533c.839-.843 1.567-1.512 1.62-1.486.05.025.743.723 1.538 1.551l1.446 1.505-1.441 1.45c-.793.797-1.523 1.45-1.622 1.45-.1 0-.83-.661-1.623-1.469zm8.113.062-.773-.07v-2.933l1.319.124a46.88 46.88 0 0 1 2.02.232c.69.105.699.117.592.762-.06.36-.11.963-.11 1.338l-.002.681-1.137-.031a38.583 38.583 0 0 1 -1.909-.102zm6.355 1.179c-.953-.271-1.299-.447-1.23-.626.053-.138.193-.78.313-1.428.17-.927.278-1.16.503-1.096 1.798.511 1.832.529 1.832.925 0 .22.052.902.117 1.516.065.625.045 1.11-.046 1.102-.089-.009-.759-.186-1.488-.393zm-.946-9.528c-2.917-1.647-4.438-2.06-8.59-2.339l-1.955-.131v-11.19l.824-3.52c2.294-9.8 3.239-12.283 5.072-13.327.903-.515 1.252-.599 3.409-.824 1.872-.195 5.16.014 7.326.465 1.616.337 2.747 1.086 4.917 3.255 1.844 1.844 2.489 2.965 3.253 5.659 1.222 4.31 1.041 8.943-.533 13.652-.636 1.903-1.783 3.688-3.392 5.28-2.168 2.144-3.756 3.118-5.83 3.577-2.434.538-2.596.518-4.5-.557zm4.811-2.881c2.104-.919 2.966-1.58 4.23-3.248 1.898-2.506 2.788-4.94 3.148-8.613.236-2.41.052-4.006-.743-6.44-.945-2.89-2.07-4.56-3.724-5.53-1.708-1.001-5.724-1.58-8.24-1.187-1.694.264-2.301.582-2.73 1.43-.887 1.748-3.196 10.226-3.754 13.78-.195 1.242-.268 2.741-.232 4.79l.052 2.98 4.91 1.325c2.7.729 5.072 1.33 5.272 1.335s1.015-.275 1.811-.622zm-32.629 3.523c-.95-.199-2.136-.55-2.636-.78-1.941-.893-5.003-3.69-6.164-5.63-1.14-1.905-2.18-5.88-2.407-9.204-.189-2.775.705-7.742 1.776-9.877.879-1.75 3.235-4.17 5.184-5.325 2.013-1.192 8.77-1.637 11.934-.784.39.105 1.074.526 1.52.937 1.517 1.399 2.336 3.7 4.239 11.92l.918 3.964v11.694l-.682.104c-4.102.63-8.748 1.89-10.812 2.933-.472.239-.922.428-1 .421-.079-.007-.92-.175-1.87-.373zm6.247-4.604c2.686-.744 4.93-1.398 4.985-1.454.212-.212.258-4.829.062-6.285-.416-3.097-2.898-12.678-3.865-14.927-.306-.71-.537-.955-1.221-1.291-.762-.375-1.102-.416-3.48-.416-2.906 0-3.993.194-5.768 1.028-2.35 1.103-3.752 3.126-4.703 6.791-.434 1.673-.463 2.018-.367 4.362.066 1.593.243 3.114.473 4.065.683 2.82 3.133 6.802 4.83 7.851.976.603 3.74 1.79 3.968 1.705.112-.041 2.4-.684 5.086-1.429zm9.496-17.374c-.342-1.59-1.282-4.613-1.95-6.272-.53-1.318-.708-1.995-.648-2.46.09-.694 1.219-2.829 2.242-4.237l.638-.878.59.97 1.148 1.877c1.046 1.706 1.076 2.038.351 3.857-.589 1.478-1.344 4.037-1.975 6.689l-.26 1.09z" fill="#fff" fill-rule="evenodd"/></svg>
